web/www/src/assets/img/reisaanbod/niveau2.svg

<svg fill="none" height="94" viewBox="0 0 41 94" width="41" xmlns="http://www.w3.org/2000/svg" xmlns:xlink="http://www.w3.org/1999/xlink"><filter id="a" color-interpolation-filters="sRGB" filterUnits="userSpaceOnUse" height="45" width="41" x="0" y="53"><feFlood flood-opacity="0" result="BackgroundImageFix"/><feBlend in="SourceGraphic" in2="BackgroundImageFix" mode="normal" result="shape"/><feColorMatrix in="SourceAlpha" result="hardAlpha" type="matrix" values="0 0 0 0 0 0 0 0 0 0 0 0 0 0 0 0 0 0 127 0"/><feOffset dy="6"/><feGaussianBlur stdDeviation="2"/><feComposite in2="hardAlpha" k2="-1" k3="1" operator="arithmetic"/><feColorMatrix type="matrix" values="0 0 0 0 0 0 0 0 0 0 0 0 0 0 0 0 0 0 0.25 0"/><feBlend in2="shape" mode="normal" result="effect1_innerShadow"/></filter><filter id="b" color-interpolation-filters="sRGB" filterUnits="userSpaceOnUse" height="32.2483" width="32.1829" x="4.59686" y="61.5969"><feFlood flood-opacity="0" result="BackgroundImageFix"/><feColorMatrix in="SourceAlpha" type="matrix" values="0 0 0 0 0 0 0 0 0 0 0 0 0 0 0 0 0 0 127 0"/><feOffset dy="4"/><feGaussianBlur stdDeviation="2"/><feColorMatrix type="matrix" values="0 0 0 0 0 0 0 0 0 0 0 0 0 0 0 0 0 0 0.25 0"/><feBlend in2="BackgroundImageFix" mode="normal" result="effect1_dropShadow"/><feBlend in="SourceGraphic" in2="effect1_dropShadow" mode="normal" result="shape"/></filter><filter id="c" color-interpolation-filters="sRGB" filterUnits="userSpaceOnUse" height="45" width="41" x="0" y="0"><feFlood flood-opacity="0" result="BackgroundImageFix"/><feBlend in="SourceGraphic" in2="BackgroundImageFix" mode="normal" result="shape"/><feColorMatrix in="SourceAlpha" result="hardAlpha" type="matrix" values="0 0 0 0 0 0 0 0 0 0 0 0 0 0 0 0 0 0 127 0"/><feOffset dy="6"/><feGaussianBlur stdDeviation="2"/><feComposite in2="hardAlpha" k2="-1" k3="1" operator="arithmetic"/><feColorMatrix type="matrix" values="0 0 0 0 0 0 0 0 0 0 0 0 0 0 0 0 0 0 0.25 0"/><feBlend in2="shape" mode="normal" result="effect1_innerShadow"/></filter><filter id="d" color-interpolation-filters="sRGB" filterUnits="userSpaceOnUse" height="32.2483" width="32.1829" x="4.59686" y="8.59686"><feFlood flood-opacity="0" result="BackgroundImageFix"/><feColorMatrix in="SourceAlpha" type="matrix" values="0 0 0 0 0 0 0 0 0 0 0 0 0 0 0 0 0 0 127 0"/><feOffset dy="4"/><feGaussianBlur stdDeviation="2"/><feColorMatrix type="matrix" values="0 0 0 0 0 0 0 0 0 0 0 0 0 0 0 0 0 0 0.25 0"/><feBlend in2="BackgroundImageFix" mode="normal" result="effect1_dropShadow"/><feBlend in="SourceGraphic" in2="effect1_dropShadow" mode="normal" result="shape"/></filter><g filter="url(#a)"><circle cx="20.5" cy="73.5" fill="#539882" r="20.5"/></g><g clip-rule="evenodd" fill="#f1e6c9" fill-rule="evenodd" filter="url(#b)"><path d="m15.204 82.1874-5.78038-2.1758-.73643 1.7848s-.70448 2.8879 1.82131 3.8388c2.5288.9541 3.9849-1.6539 3.9849-1.6539z"/><path d="m19.4324 66.3945c-2.4984-1.0027-6.0056 1.196-7.2183 3.9667-.499 1.1412-.7257 2.3721-.9144 3.5863-.0898.5797-.1537 1.1746-.2678 1.7528-.1461.7258-.3637 1.4242-.5797 2.1287-.2998.9783.0304 1.1427.9418 1.31l3.1922 1.2051c.3256.1552.9617.5462 1.2888.1811.2891-.3272.2313-.9236.4245-1.3116.2495-.5036.5295-1.0164.8384-1.4911.6832-1.0621 1.9795-1.8381 2.8575-2.754 1.0879-1.1381 1.6889-2.2793 2.0206-3.7887.4412-2.01-.5737-3.9804-2.5836-4.7853z"/><path d="m22.1255 75.6693 5.5613 2.1956s-1.1472 4.4932-4.5433 3.1861c-3.3961-1.31-1.018-5.3817-1.018-5.3817z"/><path d="m30.0574 61.8667c2.3737.8825 3.3292 4.6225 2.3295 7.3141-.4123 1.1062-1.0696 2.0982-1.7437 3.0644-.3225.4595-.6725.9099-.9783 1.3861-.3758.5934-.6893 1.2188-1.0058 1.8426-.4427.8673-.779.7684-1.5154.3135l-2.9899-1.1762c-.3241-.0974-1.0179-.2313-.9996-.6862.0167-.4108.4503-.7912.5751-1.1777.1613-.5067.3089-1.0423.4093-1.5641.2313-1.1686-.1461-2.5273-.14-3.7142 0-1.4743.3454-2.6475 1.1138-3.9027 1.0301-1.6829 3.0309-2.4071 4.945-1.6996z"/></g><g filter="url(#c)"><circle cx="20.5" cy="20.5" fill="#539882" r="20.5"/></g><g clip-rule="evenodd" fill="#f1e6c9" fill-rule="evenodd" filter="url(#d)"><path d="m15.204 29.1874-5.78038-2.1758-.73643 1.7848s-.70448 2.8879 1.82131 3.8388c2.5288.9541 3.9849-1.6539 3.9849-1.6539z"/><path d="m19.4324 13.3945c-2.4984-1.0027-6.0056 1.196-7.2183 3.9667-.499 1.1412-.7257 2.3721-.9144 3.5863-.0898.5797-.1537 1.1746-.2678 1.7528-.1461.7258-.3637 1.4242-.5797 2.1287-.2998.9783.0304 1.1427.9418 1.31l3.1922 1.2051c.3256.1552.9617.5462 1.2888.1811.2891-.3272.2313-.9236.4245-1.3116.2495-.5036.5295-1.0164.8384-1.4911.6832-1.0621 1.9795-1.8381 2.8575-2.754 1.0879-1.1381 1.6889-2.2793 2.0206-3.7887.4412-2.01-.5737-3.9804-2.5836-4.7853z"/><path d="m22.1255 22.6693 5.5613 2.1956s-1.1472 4.4932-4.5433 3.1861c-3.3961-1.31-1.018-5.3817-1.018-5.3817z"/><path d="m30.0574 8.8667c2.3737.8825 3.3292 4.6225 2.3295 7.3141-.4123 1.1062-1.0696 2.0982-1.7437 3.0644-.3225.4595-.6725.9099-.9783 1.3861-.3758.5934-.6893 1.2188-1.0058 1.8426-.4427.8673-.779.7684-1.5154.3135l-2.9899-1.1762c-.3241-.0974-1.0179-.2313-.9996-.6862.0167-.4108.4503-.7912.5751-1.1777.1613-.5067.3089-1.0423.4093-1.5641.2313-1.1686-.1461-2.5273-.14-3.7142 0-1.4743.3454-2.6475 1.1138-3.9027 1.0301-1.68287 3.0309-2.40713 4.945-1.6996z"/></g></svg>

<svg width="41" height="94" viewBox="0 0 41 94" fill="none" xmlns="http://www.w3.org/2000/svg">
<g filter="url(#filter0_i)">
<circle cx="20.5" cy="73.5" r="20.5" fill="#539882"/>
</g>
<g filter="url(#filter1_d)">
<path fill-rule="evenodd" clip-rule="evenodd" d="M15.204 82.1874L9.42362 80.0116L8.68719 81.7964C8.68719 81.7964 7.98271 84.6843 10.5085 85.6352C13.0373 86.5893 14.4934 83.9813 14.4934 83.9813L15.204 82.1874Z" fill="#F1E6C9"/>
<path fill-rule="evenodd" clip-rule="evenodd" d="M19.4324 66.3945C16.934 65.3918 13.4268 67.5905 12.2141 70.3612C11.7151 71.5024 11.4884 72.7333 11.2997 73.9475C11.2099 74.5272 11.146 75.1221 11.0319 75.7003C10.8858 76.4261 10.6682 77.1245 10.4522 77.829C10.1524 78.8073 10.4826 78.9717 11.394 79.139L14.5862 80.3441C14.9118 80.4993 15.5479 80.8903 15.875 80.5252C16.1641 80.198 16.1063 79.6016 16.2995 79.2136C16.549 78.71 16.829 78.1972 17.1379 77.7225C17.8211 76.6604 19.1174 75.8844 19.9954 74.9685C21.0833 73.8304 21.6843 72.6892 22.016 71.1798C22.4572 69.1698 21.4423 67.1994 19.4324 66.3945Z" fill="#F1E6C9"/>
<path fill-rule="evenodd" clip-rule="evenodd" d="M22.1255 75.6693L27.6868 77.8649C27.6868 77.8649 26.5396 82.3581 23.1435 81.051C19.7474 79.741 22.1255 75.6693 22.1255 75.6693Z" fill="#F1E6C9"/>
<path fill-rule="evenodd" clip-rule="evenodd" d="M30.0574 61.8667C32.4311 62.7492 33.3866 66.4892 32.3869 69.1808C31.9746 70.287 31.3173 71.279 30.6432 72.2452C30.3207 72.7047 29.9707 73.1551 29.6649 73.6313C29.2891 74.2247 28.9756 74.8501 28.6591 75.4739C28.2164 76.3412 27.8801 76.2423 27.1437 75.7874L24.1538 74.6112C23.8297 74.5138 23.1359 74.3799 23.1542 73.925C23.1709 73.5142 23.6045 73.1338 23.7293 72.7473C23.8906 72.2406 24.0382 71.705 24.1386 71.1832C24.3699 70.0146 23.9925 68.6559 23.9986 67.469C23.9986 65.9947 24.344 64.8215 25.1124 63.5663C26.1425 61.8834 28.1433 61.1592 30.0574 61.8667Z" fill="#F1E6C9"/>
</g>
<g filter="url(#filter2_i)">
<circle cx="20.5" cy="20.5" r="20.5" fill="#539882"/>
</g>
<g filter="url(#filter3_d)">
<path fill-rule="evenodd" clip-rule="evenodd" d="M15.204 29.1874L9.42362 27.0116L8.68719 28.7964C8.68719 28.7964 7.98271 31.6843 10.5085 32.6352C13.0373 33.5893 14.4934 30.9813 14.4934 30.9813L15.204 29.1874Z" fill="#F1E6C9"/>
<path fill-rule="evenodd" clip-rule="evenodd" d="M19.4324 13.3945C16.934 12.3918 13.4268 14.5905 12.2141 17.3612C11.7151 18.5024 11.4884 19.7333 11.2997 20.9475C11.2099 21.5272 11.146 22.1221 11.0319 22.7003C10.8858 23.4261 10.6682 24.1245 10.4522 24.829C10.1524 25.8073 10.4826 25.9717 11.394 26.139L14.5862 27.3441C14.9118 27.4993 15.5479 27.8903 15.875 27.5252C16.1641 27.198 16.1063 26.6016 16.2995 26.2136C16.549 25.71 16.829 25.1972 17.1379 24.7225C17.8211 23.6604 19.1174 22.8844 19.9954 21.9685C21.0833 20.8304 21.6843 19.6892 22.016 18.1798C22.4572 16.1698 21.4423 14.1994 19.4324 13.3945Z" fill="#F1E6C9"/>
<path fill-rule="evenodd" clip-rule="evenodd" d="M22.1255 22.6693L27.6868 24.8649C27.6868 24.8649 26.5396 29.3581 23.1435 28.051C19.7474 26.741 22.1255 22.6693 22.1255 22.6693Z" fill="#F1E6C9"/>
<path fill-rule="evenodd" clip-rule="evenodd" d="M30.0574 8.8667C32.4311 9.7492 33.3866 13.4892 32.3869 16.1808C31.9746 17.287 31.3173 18.279 30.6432 19.2452C30.3207 19.7047 29.9707 20.1551 29.6649 20.6313C29.2891 21.2247 28.9756 21.8501 28.6591 22.4739C28.2164 23.3412 27.8801 23.2423 27.1437 22.7874L24.1538 21.6112C23.8297 21.5138 23.1359 21.3799 23.1542 20.925C23.1709 20.5142 23.6045 20.1338 23.7293 19.7473C23.8906 19.2406 24.0382 18.705 24.1386 18.1832C24.3699 17.0146 23.9925 15.6559 23.9986 14.469C23.9986 12.9947 24.344 11.8215 25.1124 10.5663C26.1425 8.88343 28.1433 8.15917 30.0574 8.8667Z" fill="#F1E6C9"/>
</g>
<defs>
<filter id="filter0_i" x="0" y="53" width="41" height="45" filterUnits="userSpaceOnUse" color-interpolation-filters="sRGB">
<feFlood flood-opacity="0" result="BackgroundImageFix"/>
<feBlend mode="normal" in="SourceGraphic" in2="BackgroundImageFix" result="shape"/>
<feColorMatrix in="SourceAlpha" type="matrix" values="0 0 0 0 0 0 0 0 0 0 0 0 0 0 0 0 0 0 127 0" result="hardAlpha"/>
<feOffset dy="6"/>
<feGaussianBlur stdDeviation="2"/>
<feComposite in2="hardAlpha" operator="arithmetic" k2="-1" k3="1"/>
<feColorMatrix type="matrix" values="0 0 0 0 0 0 0 0 0 0 0 0 0 0 0 0 0 0 0.25 0"/>
<feBlend mode="normal" in2="shape" result="effect1_innerShadow"/>
</filter>
<filter id="filter1_d" x="4.59686" y="61.5969" width="32.1829" height="32.2483" filterUnits="userSpaceOnUse" color-interpolation-filters="sRGB">
<feFlood flood-opacity="0" result="BackgroundImageFix"/>
<feColorMatrix in="SourceAlpha" type="matrix" values="0 0 0 0 0 0 0 0 0 0 0 0 0 0 0 0 0 0 127 0"/>
<feOffset dy="4"/>
<feGaussianBlur stdDeviation="2"/>
<feColorMatrix type="matrix" values="0 0 0 0 0 0 0 0 0 0 0 0 0 0 0 0 0 0 0.25 0"/>
<feBlend mode="normal" in2="BackgroundImageFix" result="effect1_dropShadow"/>
<feBlend mode="normal" in="SourceGraphic" in2="effect1_dropShadow" result="shape"/>
</filter>
<filter id="filter2_i" x="0" y="0" width="41" height="45" filterUnits="userSpaceOnUse" color-interpolation-filters="sRGB">
<feFlood flood-opacity="0" result="BackgroundImageFix"/>
<feBlend mode="normal" in="SourceGraphic" in2="BackgroundImageFix" result="shape"/>
<feColorMatrix in="SourceAlpha" type="matrix" values="0 0 0 0 0 0 0 0 0 0 0 0 0 0 0 0 0 0 127 0" result="hardAlpha"/>
<feOffset dy="6"/>
<feGaussianBlur stdDeviation="2"/>
<feComposite in2="hardAlpha" operator="arithmetic" k2="-1" k3="1"/>
<feColorMatrix type="matrix" values="0 0 0 0 0 0 0 0 0 0 0 0 0 0 0 0 0 0 0.25 0"/>
<feBlend mode="normal" in2="shape" result="effect1_innerShadow"/>
</filter>
<filter id="filter3_d" x="4.59686" y="8.59686" width="32.1829" height="32.2483" filterUnits="userSpaceOnUse" color-interpolation-filters="sRGB">
<feFlood flood-opacity="0" result="BackgroundImageFix"/>
<feColorMatrix in="SourceAlpha" type="matrix" values="0 0 0 0 0 0 0 0 0 0 0 0 0 0 0 0 0 0 127 0"/>
<feOffset dy="4"/>
<feGaussianBlur stdDeviation="2"/>
<feColorMatrix type="matrix" values="0 0 0 0 0 0 0 0 0 0 0 0 0 0 0 0 0 0 0.25 0"/>
<feBlend mode="normal" in2="BackgroundImageFix" result="effect1_dropShadow"/>
<feBlend mode="normal" in="SourceGraphic" in2="effect1_dropShadow" result="shape"/>
</filter>
</defs>
</svg>
